X:7771
T:Unknown
O:england
R:Double Jig
S:various
M:6/8
L:1/8
K:G
G|F2D DED|F2D DED|F2D DED|C2G, ~G,3|
F2D DED|F2D DED|~B3 cAF|AGF G2:|||
|:A|B2G cde|dcB ABc|B2G GBd|F2D DED|
B2G cde|dcB ABc|~B3 cAF|AGF G2:||


